tenants/donaldduck/icons/arrow_down.svg

<svg fill="none" height="24" viewBox="0 0 24 24" width="24" xmlns="http://www.w3.org/2000/svg"><path d="m15.7165.59751c.3005.298755.4006.69709.4006 1.09543l-1.5023 15.63486h3.1048c.6009 0 1.1017.2987 1.2018.8962.2003.498 0 1.0955-.4006 1.3942l-5.6086 4.083c-.5008.3984-1.302.3984-1.8028 0l-5.60864-4.083c-.30045-.1991-.50075-.5975-.50075-.9958 0-.0996 0-.2988.10015-.3984.2003-.4979.7011-.8962 1.20185-.8962h2.90445l-1.40215-15.83403c0-.39834.10015-.796675.3005-.995845.30045-.298756.6009-.49792455 1.0015-.49792457l5.50849-.00000024c.4006.09958441.8012.29875481 1.1017.59750981zm-5.90909 1.49377 1.40219 15.83402c0 .3983-.1002.6971-.4006.9958-.3005.2988-.601.498-1.00159.498h-1.302l3.50539 2.4896 3.5054-2.5892h-1.5023c-.4006 0-.8012-.1992-1.0015-.3984-.3005-.2987-.4007-.5975-.3005-.9958l1.302-15.83402z" fill="#1b1d21"/></svg>

<svg width="24" height="24" viewBox="0 0 24 24" fill="none" xmlns="http://www.w3.org/2000/svg">
<path d="M15.7165 0.59751C16.017 0.896265 16.1171 1.2946 16.1171 1.69294L14.6148 17.3278L17.7196 17.3278C18.3205 17.3278 18.8213 17.6265 18.9214 18.224C19.1217 18.722 18.9214 19.3195 18.5208 19.6182L12.9122 23.7012C12.4114 24.0996 11.6102 24.0996 11.1094 23.7012L5.50076 19.6182C5.20031 19.4191 5.00001 19.0207 5.00001 18.6224C5.00001 18.5228 5.00001 18.3236 5.10016 18.224C5.30046 17.7261 5.80126 17.3278 6.30201 17.3278L9.20646 17.3278L7.80431 1.49377C7.80431 1.09543 7.90446 0.697095 8.10481 0.497925C8.40526 0.199169 8.70571 4.49978e-07 9.10631 4.32467e-07L14.6148 1.91684e-07C15.0154 0.0995846 15.416 0.298755 15.7165 0.59751ZM9.80741 2.09128L11.2096 17.9253C11.2096 18.3236 11.1094 18.6224 10.809 18.9211C10.5085 19.2199 10.208 19.4191 9.80741 19.4191L8.50541 19.4191L12.0108 21.9087L15.5162 19.3195L14.0139 19.3195C13.6133 19.3195 13.2127 19.1203 13.0124 18.9211C12.7119 18.6224 12.6117 18.3236 12.7119 17.9253L14.0139 2.09128L9.80741 2.09128Z" fill="#1B1D21"/>
</svg>
